X:1
T:Title
%%score { ( 1 4 ) | ( 2 3 ) }
L:1/8
M:2/4
K:Eb
V:1 treble nm="Grand Piano"
V:4 treble 
V:2 bass 
V:3 bass 
V:1
 z2 z[Q:1/4=84] [Ge] | [Gd]>[EG] [EG][Gd] | [Gc]>[EG] [EG][Gc] | [GB]>[GB] [FA]G |[M:3/8] B A2 | %5
[M:1/8] e |[M:2/4] d>[FB] [FA][Ad] | [Gc]>G GG | z/ G/A/B/ c[Ad] |[M:3/8] [Ge]3 | %10
[M:6/8] z B2 z c2 | z B2 z c2- | c3 z F2 | z G2- G F2 | z c2 z d2 | z c2 z d2- | d3 z d2 | %17
 z f2- f B2 | z c2 z B2 | z A2 z G2- | G3 z3 |[M:5/8] B [Ad]2 [AB][Ge]- | [Ge] z z z2 |] %23
V:2
 z2 z [E,B,] | [E,B,]>[E,B,] [E,B,][E,B,] | [E,B,]>[E,B,] [E,B,][E,B,] | %3
 [E,B,]>[E,B,] [E,B,][E,B,E] |[M:3/8] [G,=E] z z |[M:1/8][K:treble] [A,CF] | %6
[M:2/4] [B,A]>[K:bass][B,,B,] [B,,B,][B,,B,] | [E,B,]>[E,B,E] [E,B,E][E,B,E] | %8
 [A,C][A,CF] [B,A][K:bass][B,,B,] |[M:3/8] [E,B,]3 |[M:6/8] z2 B, .[B,E]2 [CE] | %11
 .[CE]2 B, .[B,E]2 [CE] | .[CE]2 [B,E] .[B,E]2 G, | .[G,B,]2 A, .A,2 A, | %14
 .[CF]2[K:treble] [CF] .[CF]2[K:bass][K:treble] [DF] | %15
 .[DF]2[K:bass][K:treble] [CF] .[CF]2[K:bass][K:treble] [DF] | %16
 [DF][K:bass]F,,[F,=A,E] [F,A,E]F,,[F,A,] | [F,=A,E]B,,[_A,B,D] [A,B,D]B,,[K:treble][A,B,D] | %18
 .[A,B,DA]2[K:bass] C .C2 B, | .B,2 C .[D,,D,]2 B, | B,F,G, A,B,C | %21
[M:5/8] B, [B,,B,]2 [B,,B,][E,B,]- | [E,B,] z z z2 |] %23
V:3
 x4 | x4 | x4 | x4 |[M:3/8] C- [F,CF]2 |[M:1/8][K:treble] x |[M:2/4] x3/2[K:bass] x5/2 | x4 | %8
 x3[K:bass] x |[M:3/8] x3 |[M:6/8] z [E,,E,]2 z [C,,C,]2 | z [E,,E,]2 z [C,,C,]2 | %12
 z [E,,E,]2 z [E,,E,]2 | z [A,,,A,,]2 z [A,,,A,,]2 | %14
 z [F,,F,]2[K:treble] z[K:bass] [B,,,B,,]2[K:treble] | %15
 z[K:bass] [F,,F,]2[K:treble] z[K:bass] [B,,,B,,]2[K:treble] | x[K:bass] x5 | x5[K:treble] x | %18
 z[K:bass] [A,,A,]2- [A,,A,] [G,,G,]2- | [G,,G,] [F,,F,]2 z [E,,E,]2- | [E,,E,]3 z3 |[M:5/8] x5 | %22
 x5 |] %23
V:4
 x4 | x4 | x4 | x4 |[M:3/8] x3 |[M:1/8] x |[M:2/4] x4 | x4 | .F2 z2 |[M:3/8] x3 | %10
[M:6/8] .G2 E .G2 G | .G2 E .G2 G | GBA .G2 B, | .E2 C .C2 C | .A2 A .A2 A | .A2 A .A2 A | %16
 Ac=B .c2 E | .e2 [FBd] .[FBd]2 A | .B2 F .F2 E | .E2 F .[B,FB]2 E | EFG ABc |[M:5/8] x5 | x5 |] %23

